X:1
T:Title
%%score { ( 1 3 ) | ( 2 4 ) }
L:1/8
Q:1/4=132
M:6/4
K:Ab
V:1 treble nm="Grand Piano"
V:3 treble 
V:2 bass 
V:4 bass 
V:1
 F2 =E2 F2 [FA]2 [EG]2 [FA]2 | [=Ed]2 [Ec]2 [EB]2 [FA]6 | B2 _G2 B2 A2 G2 F2 | z6 A6 | %4
w: B.~D.~Ackley * * * * *||||
 F2 =E2 F2 [FA]2 [EG]2 [FA]2 | [Fd]2 [FA]2 [F=A]2 [_GB]6 | [GB]2 [Gc]2 [Gd]2 [EAc]6 | %7
w: |||
 [DGB]2 [CEA]2 [B,EG]2 E2- [EB]2 c2 | [Fd]2 [Fc]2 [FB]2 [FA]2 [FB]2 [A,DF]2 | %9
w: ||
 [A,FA]2 [CE_G]3 [_C=DF] [=CEG]6 | [E_Gc]2 [DGB]2 [CGA]2 [CEG]2 [CEA]2 [CE]2 | %11
w: ||
 [_GB]2 [FA]3 [=E=G] [FA]6 | [Fd]2 [Fc]2 [Fd]2 [_Ge]2 [Fd]2 [FA]2 | [Ac]2 B3 =A B6 | z6 [FA]6 | %15
w: ||||
 C2- [CB]2 [_Gc]2 [Fd]6 |] %16
w: |
V:2
 [D,A,D]2 [D,G,D]2 [D,A,D]2 [D,D]2 [D,D]2 [D,D]2 | [D,G,]2 [D,G,]2 [D,B,]2 [D,D]6 | %2
 [_G,D_G]2 [G,B,D]2 [G,DG]2 [F,D]2 [E,A,C]2 [D,A,D]2 | [B,,G,]2 [B,,G,]2 [B,,E,]2 E,2 F,2 _G,2 | %4
 [D,A,D]2 [D,G,D]2 [D,A,D]2 [D,D]2 [D,D]2 [D,D]2 | [D,A,]2 [D,D]2 [D,D]2 [_G,D]6 | %6
 [E,D]2 [E,C]2 B,E A,6 | E,2 E,2 E,2 z2[K:treble] D2 [E_G]2 | %8
 [D,A,]2 [D,A,]2 [D,B,]2 [D,D]2 [D,D]2 D,2 | A,,2 A,,3 A,, A,,6 | %10
 A,,2 A,,2 A,,2 A,,2 A,,2 [A,,A,]2 | [D,D]2 [D,D]3 [D,D] [D,D]6 | %12
 [D,A,]2 [D,A,]2 [D,A,]2 [D,A,]2 [D,A,]2 [D,D]2 | [_G,D]2[K:treble] [G,D_G]3 [G,CG] [G,DG]6 | %14
 =E2 E2[K:bass] G,2 A,2 F,2 D,2 | z2 _G2 [A,,A,]2 [D,A,]6 |] %16
V:3
 x12 | x12 | x12 | [DF]2 [DE]2 D2 C2 D2 E2 | x12 | x12 | x12 | z6 .[CA]6 | x12 | x12 | x12 | x12 | %12
 x12 | x12 | d2 c2 [D=EB]2 D2 D2 D2 | .[_GA]6 z6 |] %16
V:4
 x12 | x12 | x12 | z6 A,,6 | x12 | x12 | z4 E,2 z6 | z6 A,,6[K:treble] | x12 | x12 | x12 | x12 | %12
 x12 | x2[K:treble] x10 | .[G,B,]6[K:bass] z6 | .A,,6 z6 |] %16

